!!!OTL: Herzog Ernst.
!!!ARE: Europa, Mitteleuropa, Deutschland
!!!SCT: A0004A
!!!TXL: @@DE
!!!YEM: Copyright 1995, estate of Helmut Schaffrath.
**kern	**text
!! Irregular meter.
*MX	*
*k[]	*
*clefC5	*
*e:phr	*
!LO:TX:a:t=phryg.	!
{2A	Es
2A	fůr
2A	ein
=1-	=1-
2A	her
2B	was
2c	e-
2A	-rent-
1A	-reich,
=2-	=2-
2r}	.
{2c	ge-
2c	-hei-
2c	-ſen
=3-	=3-
1B	kai-
2A	-ſer
2B	Fri-
2A	-de-
1A}	-reich,
{1A	als
1B	wir
2A	noch
2G	ho-
2F	-ren
2E	ſa-
1E	-gen
=4	=4
2r}	.
{2A	Doch
2A	nie-
2A	-mand
=5-	=5-
2A	weiß
2B	ʒu
2c	di-
2A	-ſer
1A	friſt,
=6-	=6-
2r}	.
{2c	wo
2c	er
2c	ie
=7-	=7-
1B	doch
2A	hin
2B	ko-
2A	-men
1A}	iſt,
{1A	man
1B	hort
2A	in
2G	wei-
2F	-te
2E	kla-
1E	-gen
=8	=8
2r}	.
{2E	[Ach]
2E	bai-
2E	-de
=9-	=9-
2G	rit-
2G	-ter
2A	vnd
2A	auch
=10-	=10-
1A}	knecht,
{2A	lant-
2A	-leut
2A	vnd
=11-	=11-
2G	auch
2F	pur-
2E	-ge-
2C	-re,
=12-	=12-
2r}	.
{2C	kein
2G	recht
2G	mag
=13-	=13-
2G	an
2G	in
2A	wer-
2A	-den
=14-	=14-
1A}	ſchlecht,
{2A	was
2A	in
2A	dem
2G	land
=15-	=15-
2F	nun
2E	we-
1E	-re,
=16-	=16-
2r}	.
{2E	wel-
2E	-cher
2E	wi-
=17-	=17-
2G	-der
2G	recht
2E	het
2D	ge-
=18-	=18-
1C	-tan,
=19-	=19-
2r}	.
{2C	ʒu
2G	hul-
2G	-den
=20-	=20-
2A	mocht
2B	er
1c	ko-
2B	-men
*lig	*
1A	nicht,
4G	.
4F	.
1E}	.
*Xlig	*
{2A	ein
=21-	=21-
1B	ſchwe-
2A	-re
=22-	=22-
1G	puß
2F	muß
=23-	=23-
1E	er
2C	be-
=24-	=24-
*lig	*
1D	-ſtan.
0E/ll;}	.
*Xlig	*
==	==
!!!GTL: Balladen und Romanzen (erzählende Volkslieder)
!!!AGN: Romanze, Ballade, Lied
!!!ONB: ESAC (Essen Associative Code) Database: ALTDEU
!!!AMT: irregular
!!!AIN: vox
!!!EED: Helmut Schaffrath
!!!EEV: 1.0
!!!RDF**kern: l = terminal long
!!!AMD: Phrygian
!!!URL-scan: https://rosdok.uni-rostock.de/mcrviewer/recordIdentifier/rosdok_ppn738218359/iview2/phys_0091.iview2?x=-1950.765460910152&y=-4.093348891474307&scale=0.2442987457240593&rotation=0&layout=singlePageLayout&logicalDiv=log_0007
!!!ENC: Anna Maria Matuszewska
!!!EEV: 2024/15/02
*-	*-
